nameplates/pocket.svg

<svg xmlns="http://www.w3.org/2000/svg" width="896" height="676" fill="none"><g fill="#fff" clip-path="url(#a)"><path d="M160.295 243.229H82.183v380.397l23.893 3.544v5.907L0 676v-5.907l23.237-25.99V5.907H0V0h160.295c24.55 0 44.374 19.82 44.374 43.71v155.808c0 23.89-19.824 43.711-44.374 43.711m-14.572-29.797V29.797c0-11.945-9.321-23.89-25.206-23.89H82.183V237.19h38.334c15.885 0 25.206-11.945 25.206-23.89z"/><path d="M117.235 306.628c0-23.889 19.823-43.71 44.373-43.71h55.664c24.55 0 44.373 19.821 44.373 43.71v237.847c0 23.89-19.823 43.711-44.373 43.711h-55.664c-24.55 0-44.373-19.821-44.373-43.711zM204.8 582.279V292.715c0-11.945-9.977-23.89-25.206-23.89h-5.251v288.908c0 11.945 9.321 24.546 24.549 24.546zm129.05-1.313c-22.58 0-46.342-18.508-46.342-43.71V287.989c0-25.202 23.893-43.71 46.342-43.71h82.839v139.794l-54.35-132.575c-11.291 2.625-17.855 12.601-17.855 22.577v276.438c0 9.976 6.564 20.608 17.855 23.234l56.32-133.231v140.45zm193.51 63.925h-99.381v-5.907h23.237V153.183h-23.237v-5.907h80.214V460.73l74.962-225.377-21.924 225.377c19.167 5.907 33.871 23.234 34.527 43.054v135.2h23.237v5.907h-80.213V491.183c0-11.945-9.321-23.89-24.55-23.89h-5.908v171.691h19.167v5.907zm97.149-352.57c0-23.89 19.823-43.711 44.373-43.711h55.664c24.549 0 44.373 19.821 44.373 43.711v113.935h-87.565V555.37c0 12.601 9.321 25.202 25.206 25.202h5.908l55.007-135.2v141.107h-98.724c-24.55 0-44.374-19.82-44.374-43.71v-250.58zm87.434 108.029V277.751c0-11.289-9.321-23.89-25.207-23.89h-5.251V400.35zm149.005-192.431h33.083v5.907h-33.083V635.44c0 11.945 9.321 23.89 25.206 23.89h9.977v5.907h-47.786c-24.55 0-44.374-19.821-44.374-43.711V213.957h-9.977l66.954-140.45V208.05z"/></g><defs><clipPath id="a"><path fill="#fff" d="M0 0h896v676H0z"/></clipPath></defs></svg>

<svg width="896" height="676" viewBox="0 0 896 676" fill="none" xmlns="http://www.w3.org/2000/svg">
<g clip-path="url(#clip0_22600_308)">
<path d="M160.295 243.229H82.1826V623.626L106.076 627.17V633.077L0 676V670.093L23.2369 644.103V5.9068H0V0H160.295C184.845 0 204.669 19.8206 204.669 43.7103V199.518C204.669 223.408 184.845 243.229 160.295 243.229ZM145.723 213.432V29.7965C145.723 17.8517 136.402 5.9068 120.517 5.9068H82.1826V237.191H120.517C136.402 237.191 145.723 225.246 145.723 213.301V213.432Z" fill="white"/>
<path d="M117.235 306.628C117.235 282.739 137.058 262.918 161.608 262.918H217.272C241.822 262.918 261.645 282.739 261.645 306.628V544.475C261.645 568.365 241.822 588.186 217.272 588.186H161.608C137.058 588.186 117.235 568.365 117.235 544.475V306.628ZM204.8 582.279V292.715C204.8 280.77 194.823 268.825 179.594 268.825H174.343V557.733C174.343 569.678 183.664 582.279 198.892 582.279H204.8Z" fill="white"/>
<path d="M333.85 580.966C311.27 580.966 287.508 562.458 287.508 537.256V287.989C287.508 262.787 311.401 244.279 333.85 244.279H416.689V384.073L362.339 251.498C351.048 254.123 344.484 264.099 344.484 274.075V550.513C344.484 560.489 351.048 571.121 362.339 573.747L418.659 440.516V580.966H333.85Z" fill="white"/>
<path d="M527.36 644.891H427.979V638.984H451.216V153.183H427.979V147.276H508.193V460.73L583.155 235.353L561.231 460.73C580.398 466.637 595.102 483.964 595.758 503.784V638.984H618.995V644.891H538.782V491.183C538.782 479.238 529.461 467.293 514.232 467.293H508.324V638.984H527.491V644.891H527.36Z" fill="white"/>
<path d="M624.509 292.321C624.509 268.431 644.332 248.61 668.882 248.61H724.546C749.095 248.61 768.919 268.431 768.919 292.321V406.256H681.354V555.37C681.354 567.971 690.675 580.572 706.56 580.572H712.468L767.475 445.372V586.479H668.751C644.201 586.479 624.377 566.659 624.377 542.769V292.189L624.509 292.321ZM711.943 400.35V277.751C711.943 266.462 702.622 253.861 686.736 253.861H681.485V400.35H711.943Z" fill="white"/>
<path d="M860.948 207.919H894.031V213.826H860.948V635.44C860.948 647.385 870.269 659.33 886.154 659.33H896.131V665.237H848.345C823.795 665.237 803.971 645.416 803.971 621.526V213.957H793.994L860.948 73.5068V208.051V207.919Z" fill="white"/>
</g>
<defs>
<clipPath id="clip0_22600_308">
<rect width="896" height="676" fill="white"/>
</clipPath>
</defs>
</svg>
